icons/tunein.svg

<svg width="32" height="32" viewBox="0 0 32 32" fill="none" xmlns="http://www.w3.org/2000/svg">
<g clip-path="url(#clip0_1_102)">
<path d="M3.36627 28.6337C0.910867 26.1783 0 22.1783 0 16C0 9.82167 0.910867 5.82167 3.36627 3.36627C5.82167 0.910867 9.82167 0 16 0C22.1783 0 26.1783 0.910867 28.6337 3.36627C31.0891 5.82167 32 9.82167 32 16C32 22.1783 31.0891 26.1783 28.6337 28.6337C26.1783 31.0891 22.1783 32 16 32C9.82167 32 5.82167 31.0891 3.36627 28.6337Z" fill="#1C1F3E"/>
<path d="M7.19686 14.6425V15.2939C7.19458 15.3277 7.18012 15.3595 7.15617 15.3835C7.13221 15.4074 7.10039 15.4219 7.06659 15.4241H6.25239C6.23551 15.4253 6.21961 15.4325 6.20764 15.4445C6.19566 15.4564 6.18842 15.4723 6.18726 15.4892V18.9413C6.18498 18.9751 6.17053 19.0069 6.14659 19.0308C6.12265 19.0548 6.09084 19.0692 6.05706 19.0715H5.40572C5.37192 19.0693 5.3401 19.0548 5.31614 19.0309C5.29219 19.0069 5.27773 18.9751 5.27546 18.9413V15.4892C5.2743 15.4723 5.26707 15.4564 5.2551 15.4444C5.24312 15.4325 5.22722 15.4252 5.21032 15.4241H4.39612C4.36233 15.4218 4.33052 15.4074 4.30656 15.3834C4.28261 15.3595 4.26815 15.3277 4.26586 15.2939V14.6425C4.26813 14.6087 4.28259 14.5769 4.30654 14.553C4.3305 14.529 4.36232 14.5146 4.39612 14.5123H7.06672C7.1005 14.5146 7.13229 14.5291 7.15622 14.553C7.18014 14.577 7.19458 14.6088 7.19686 14.6425ZM10.6383 14.5123H9.98672C9.95292 14.5146 9.9211 14.529 9.89714 14.553C9.87319 14.5769 9.85873 14.6087 9.85646 14.6425V17.7037C9.85646 17.9971 9.62846 18.2248 9.22139 18.2248C8.83059 18.2248 8.60266 17.9969 8.60266 17.7037V14.6425C8.60038 14.6087 8.58592 14.5769 8.56197 14.553C8.53801 14.529 8.50619 14.5146 8.47239 14.5123H7.82106C7.78726 14.5146 7.75543 14.529 7.73148 14.553C7.70752 14.5769 7.69307 14.6087 7.69079 14.6425V17.7037C7.69544 17.8989 7.73892 18.0911 7.81871 18.2693C7.89849 18.4474 8.01298 18.6079 8.15547 18.7413C8.29797 18.8747 8.46563 18.9784 8.64864 19.0463C8.83166 19.1142 9.02636 19.1449 9.22139 19.1367C9.41758 19.1465 9.61376 19.117 9.79838 19.0498C9.983 18.9827 10.1523 18.8794 10.2964 18.7459C10.4405 18.6124 10.5565 18.4514 10.6375 18.2724C10.7185 18.0935 10.7629 17.9001 10.7681 17.7037V14.6425C10.7658 14.6087 10.7513 14.5769 10.7274 14.553C10.7034 14.529 10.6716 14.5146 10.6378 14.5123H10.6383ZM14.2716 14.5123H13.6201C13.5863 14.5146 13.5544 14.529 13.5305 14.553C13.5065 14.5769 13.4921 14.6087 13.4898 14.6425V17.085C13.4895 17.0926 13.4867 17.0998 13.4819 17.1056C13.4772 17.1115 13.4706 17.1157 13.4633 17.1175C13.456 17.1193 13.4483 17.1187 13.4413 17.1158C13.4343 17.1129 13.4285 17.1078 13.4247 17.1013L12.5291 14.6263C12.5206 14.5907 12.4994 14.5593 12.4694 14.5383C12.4393 14.5173 12.4026 14.5081 12.3662 14.5124H11.5846C11.5508 14.5147 11.519 14.5291 11.495 14.5531C11.4711 14.5771 11.4566 14.6089 11.4543 14.6427V18.9414C11.4566 18.9752 11.4711 19.007 11.495 19.031C11.519 19.0549 11.5508 19.0694 11.5846 19.0717H12.2359C12.2697 19.0694 12.3015 19.0549 12.3255 19.031C12.3495 19.007 12.3639 18.9752 12.3662 18.9414V16.6942C12.3665 16.6866 12.3692 16.6794 12.374 16.6735C12.3787 16.6676 12.3853 16.6634 12.3926 16.6616C12.4 16.6597 12.4077 16.6603 12.4147 16.6633C12.4217 16.6662 12.4275 16.6714 12.4313 16.6779L13.3107 18.9575C13.3236 18.9938 13.3482 19.0246 13.3806 19.0453C13.4131 19.0659 13.4514 19.0752 13.4897 19.0715H14.2551C14.2889 19.0693 14.3207 19.0548 14.3446 19.0309C14.3686 19.0069 14.383 18.9751 14.3853 18.9413V14.6425C14.3874 14.6263 14.3861 14.6098 14.3813 14.5941C14.3765 14.5785 14.3685 14.564 14.3577 14.5517C14.3469 14.5394 14.3337 14.5295 14.3188 14.5227C14.3039 14.5159 14.2877 14.5123 14.2713 14.5123H14.2716ZM17.6419 18.1597H16.0953C16.0784 18.1585 16.0624 18.1513 16.0505 18.1393C16.0385 18.1274 16.0313 18.1114 16.0301 18.0945V17.313C16.0313 17.2961 16.0385 17.2802 16.0505 17.2682C16.0625 17.2563 16.0784 17.249 16.0953 17.2479H17.5607C17.5945 17.2456 17.6263 17.2311 17.6503 17.2072C17.6743 17.1832 17.6887 17.1514 17.691 17.1176V16.4663C17.6887 16.4325 17.6743 16.4007 17.6503 16.3768C17.6263 16.3528 17.5945 16.3384 17.5607 16.3361H16.0951C16.0782 16.3349 16.0622 16.3277 16.0503 16.3157C16.0383 16.3038 16.0311 16.2878 16.0299 16.2709V15.4892C16.0311 15.4723 16.0383 15.4564 16.0503 15.4444C16.0623 15.4325 16.0782 15.4252 16.0951 15.4241H17.6094C17.6432 15.4218 17.675 15.4074 17.6989 15.3834C17.7229 15.3595 17.7374 15.3277 17.7397 15.2939V14.6425C17.7374 14.6087 17.7229 14.5769 17.699 14.553C17.675 14.529 17.6432 14.5146 17.6094 14.5123H15.2483C15.2145 14.5146 15.1827 14.529 15.1587 14.553C15.1348 14.5769 15.1203 14.6087 15.1181 14.6425V18.9413C15.1203 18.9751 15.1348 19.0069 15.1587 19.0309C15.1827 19.0548 15.2145 19.0693 15.2483 19.0715H17.6417C17.6755 19.0693 17.7073 19.0548 17.7312 19.0309C17.7552 19.0069 17.7696 18.9751 17.7719 18.9413V18.2899C17.7697 18.2562 17.7552 18.2244 17.7313 18.2004C17.7074 18.1765 17.6757 18.162 17.6419 18.1597ZM28.9334 9.59968H19.3334C19.2806 9.59871 19.2281 9.60839 19.1792 9.62815C19.1302 9.64791 19.0857 9.67734 19.0484 9.71468C19.0111 9.75202 18.9816 9.7965 18.9619 9.84546C18.9421 9.89443 18.9324 9.94688 18.9334 9.99968V12.2663H3.06672C3.01393 12.2654 2.96148 12.2751 2.91251 12.2948C2.86354 12.3146 2.81906 12.344 2.78172 12.3813C2.74439 12.4187 2.71496 12.4632 2.6952 12.5121C2.67544 12.5611 2.66575 12.6135 2.66672 12.6663V20.933C2.66575 20.9858 2.67544 21.0383 2.6952 21.0872C2.71496 21.1362 2.74439 21.1807 2.78172 21.218C2.81906 21.2553 2.86354 21.2848 2.91251 21.3045C2.96148 21.3243 3.01393 21.334 3.06672 21.333H19.3334C19.3862 21.334 19.4386 21.3243 19.4876 21.3045C19.5366 21.2848 19.5811 21.2553 19.6184 21.218C19.6557 21.1807 19.6852 21.1362 19.7049 21.0872C19.7247 21.0383 19.7344 20.9858 19.7334 20.933V18.6663H28.9334C28.9862 18.6673 29.0386 18.6576 29.0876 18.6379C29.1366 18.6181 29.181 18.5887 29.2184 18.5513C29.2557 18.514 29.2852 18.4695 29.3049 18.4206C29.3247 18.3716 29.3344 18.3191 29.3334 18.2663V9.99968C29.3344 9.94688 29.3247 9.89443 29.3049 9.84546C29.2852 9.7965 29.2557 9.75202 29.2184 9.71468C29.181 9.67734 29.1366 9.64791 29.0876 9.62815C29.0386 9.60839 28.9862 9.59871 28.9334 9.59968ZM18.9334 20.4663C18.9339 20.4752 18.9326 20.4841 18.9294 20.4925C18.9262 20.5008 18.9214 20.5084 18.9151 20.5147C18.9088 20.521 18.9012 20.5259 18.8929 20.529C18.8845 20.5322 18.8756 20.5335 18.8667 20.533H3.53339C3.5245 20.5335 3.51559 20.5322 3.50726 20.529C3.49893 20.5259 3.49136 20.521 3.48506 20.5147C3.47876 20.5084 3.47387 20.5008 3.47071 20.4925C3.46755 20.4841 3.46619 20.4752 3.46672 20.4663V13.133C3.46619 13.1241 3.46755 13.1152 3.47071 13.1069C3.47387 13.0985 3.47876 13.091 3.48506 13.0847C3.49136 13.0784 3.49893 13.0735 3.50726 13.0703C3.51559 13.0672 3.5245 13.0658 3.53339 13.0663H18.9334V20.4663ZM23.5858 16.313C23.5835 16.3473 23.5688 16.3796 23.5445 16.4039C23.5202 16.4282 23.4879 16.4428 23.4537 16.4451H21.2734C21.2391 16.4428 21.2068 16.4282 21.1825 16.4039C21.1582 16.3796 21.1436 16.3473 21.1413 16.313V15.6854C21.1436 15.6511 21.1582 15.6189 21.1825 15.5946C21.2068 15.5703 21.2391 15.5556 21.2734 15.5533H21.8349C21.8521 15.5521 21.8682 15.5448 21.8803 15.5326C21.8925 15.5205 21.8998 15.5043 21.901 15.4872V12.7787C21.8998 12.7616 21.8925 12.7455 21.8803 12.7333C21.8682 12.7212 21.8521 12.7138 21.8349 12.7127H21.3395C21.3052 12.7104 21.2729 12.6957 21.2486 12.6714C21.2243 12.6471 21.2096 12.6148 21.2073 12.5805V11.953C21.2096 11.9187 21.2243 11.8865 21.2486 11.8622C21.2729 11.8379 21.3052 11.8232 21.3395 11.8209H23.3874C23.4217 11.8232 23.4539 11.8379 23.4782 11.8622C23.5025 11.8865 23.5172 11.9187 23.5195 11.953V12.5806C23.5172 12.6149 23.5025 12.6472 23.4782 12.6715C23.4539 12.6958 23.4217 12.7104 23.3874 12.7127H22.8919C22.8748 12.7139 22.8587 12.7212 22.8465 12.7334C22.8344 12.7455 22.827 12.7617 22.8259 12.7788V15.4873C22.827 15.5045 22.8344 15.5206 22.8465 15.5328C22.8587 15.5449 22.8748 15.5522 22.8919 15.5534H23.4534C23.4877 15.5557 23.5199 15.5704 23.5442 15.5947C23.5685 15.619 23.5832 15.6513 23.5855 15.6855L23.5858 16.313ZM27.2853 16.313C27.283 16.3473 27.2683 16.3796 27.244 16.4039C27.2197 16.4282 27.1875 16.4428 27.1532 16.4451H26.377C26.3382 16.4488 26.2992 16.4394 26.2663 16.4185C26.2334 16.3976 26.2084 16.3663 26.1953 16.3295L25.3035 14.0173C25.2996 14.0107 25.2937 14.0055 25.2866 14.0025C25.2795 13.9996 25.2717 13.999 25.2642 14.0008C25.2568 14.0027 25.2501 14.0069 25.2453 14.0129C25.2405 14.0188 25.2377 14.0262 25.2374 14.0339V16.313C25.2351 16.3473 25.2204 16.3796 25.1961 16.4039C25.1718 16.4282 25.1395 16.4428 25.1053 16.4451H24.4446C24.4103 16.4428 24.378 16.4282 24.3537 16.4039C24.3294 16.3796 24.3148 16.3473 24.3125 16.313V11.953C24.3148 11.9187 24.3294 11.8865 24.3537 11.8622C24.378 11.8379 24.4103 11.8232 24.4446 11.8209H25.2209C25.2578 11.8165 25.295 11.8258 25.3255 11.8472C25.3559 11.8685 25.3775 11.9003 25.386 11.9365L26.2943 14.4469C26.2982 14.4535 26.3041 14.4587 26.3112 14.4617C26.3183 14.4647 26.3261 14.4653 26.3336 14.4634C26.341 14.4615 26.3476 14.4573 26.3525 14.4513C26.3573 14.4454 26.3601 14.438 26.3604 14.4303V11.953C26.3627 11.9187 26.3774 11.8865 26.4017 11.8622C26.426 11.8379 26.4582 11.8232 26.4925 11.8209H27.1532C27.1875 11.8232 27.2197 11.8379 27.244 11.8622C27.2683 11.8865 27.283 11.9187 27.2853 11.953V16.313Z" fill="#00D9CD"/>
</g>
<defs>
<clipPath id="clip0_1_102">
<rect width="32" height="32" fill="white"/>
</clipPath>
</defs>
</svg>

<svg xmlns="http://www.w3.org/2000/svg" width="32" height="32" fill="none" viewBox="0 0 32 32">
  <g clip-path="url(#a)">
    <path fill="#1C1F3E" d="M3.366 28.634C.911 26.178 0 22.178 0 16S.91 5.822 3.366 3.366C5.822.911 9.822 0 16 0s10.178.91 12.634 3.366C31.089 5.822 32 9.822 32 16s-.91 10.178-3.366 12.634C26.178 31.089 22.178 32 16 32s-10.178-.91-12.634-3.366Z"/>
    <path fill="#00D9CD" d="M7.197 14.643v.65a.14.14 0 0 1-.13.131h-.815a.07.07 0 0 0-.065.065v3.452a.14.14 0 0 1-.13.13h-.651a.14.14 0 0 1-.13-.13V15.49a.07.07 0 0 0-.066-.065h-.814a.14.14 0 0 1-.13-.13v-.652a.14.14 0 0 1 .13-.13h2.67a.14.14 0 0 1 .13.13Zm3.441-.13h-.651a.14.14 0 0 0-.13.13v3.06c0 .294-.229.522-.636.522-.39 0-.618-.228-.618-.521v-3.062a.14.14 0 0 0-.13-.13H7.82a.14.14 0 0 0-.13.13v3.062a1.47 1.47 0 0 0 1.53 1.433 1.472 1.472 0 0 0 1.547-1.433v-3.062a.14.14 0 0 0-.13-.13Zm3.634 0h-.652a.14.14 0 0 0-.13.13v2.442a.035.035 0 0 1-.065.016l-.896-2.475a.149.149 0 0 0-.163-.114h-.781a.14.14 0 0 0-.13.13v4.3a.14.14 0 0 0 .13.13h.65a.14.14 0 0 0 .131-.13v-2.248a.035.035 0 0 1 .049-.03.035.035 0 0 1 .016.014l.88 2.28a.173.173 0 0 0 .179.114h.765a.14.14 0 0 0 .13-.13v-4.3a.117.117 0 0 0-.027-.09.116.116 0 0 0-.087-.04Zm3.37 3.647h-1.547a.07.07 0 0 1-.065-.066v-.781a.07.07 0 0 1 .065-.065h1.466a.14.14 0 0 0 .13-.13v-.652a.14.14 0 0 0-.13-.13h-1.466a.07.07 0 0 1-.065-.065v-.782a.07.07 0 0 1 .065-.065h1.514a.14.14 0 0 0 .13-.13v-.652a.14.14 0 0 0-.13-.13h-2.36a.14.14 0 0 0-.131.13v4.3a.14.14 0 0 0 .13.13h2.394a.14.14 0 0 0 .13-.13v-.652a.14.14 0 0 0-.13-.13ZM28.933 9.6h-9.6a.393.393 0 0 0-.4.4v2.266H3.067a.395.395 0 0 0-.4.4v8.267a.393.393 0 0 0 .4.4h16.266a.392.392 0 0 0 .4-.4v-2.267h9.2a.393.393 0 0 0 .4-.4V10a.395.395 0 0 0-.4-.4Zm-10 10.866c0 .01 0 .018-.004.026a.064.064 0 0 1-.036.037.063.063 0 0 1-.026.004H3.533a.063.063 0 0 1-.066-.067v-7.333a.063.063 0 0 1 .066-.067h15.4v7.4Zm4.653-4.153a.143.143 0 0 1-.132.132h-2.18a.142.142 0 0 1-.133-.132v-.628a.142.142 0 0 1 .132-.132h.562a.07.07 0 0 0 .066-.066V12.78a.071.071 0 0 0-.066-.066h-.496a.142.142 0 0 1-.132-.132v-.628a.142.142 0 0 1 .132-.132h2.048a.142.142 0 0 1 .133.132v.628a.142.142 0 0 1-.133.132h-.495a.07.07 0 0 0-.066.066v2.708a.071.071 0 0 0 .066.066h.561a.142.142 0 0 1 .133.132v.628Zm3.7 0a.142.142 0 0 1-.133.132h-.776a.175.175 0 0 1-.182-.116l-.892-2.312a.036.036 0 0 0-.039-.016.035.035 0 0 0-.019.012.035.035 0 0 0-.008.02v2.28a.143.143 0 0 1-.132.132h-.66a.142.142 0 0 1-.133-.132v-4.36a.142.142 0 0 1 .133-.132h.776a.151.151 0 0 1 .165.116l.908 2.51a.036.036 0 0 0 .04.016.036.036 0 0 0 .026-.033v-2.477a.142.142 0 0 1 .133-.132h.66a.142.142 0 0 1 .132.132v4.36Z"/>
  </g>
  <defs>
    <clipPath id="a">
      <path fill="#fff" d="M0 0h32v32H0z"/>
    </clipPath>
  </defs>
</svg>
